X:0657
M:C
L:1/8
Q:1/4=120
K:G
d'3  b g2g2 | a2ac' b2zd'   |d'3 b  bgc'b|a2  a>a a2 z2:|
d2 d>d dabc'| d2d>d dgbd'   |c'aaa  bggg |e'd'c'b b2 a2 |
g2 ba  gde=f|=fee4 ^f/g/a/b/|c'c'bb aagg |f2  a>a a2 z2 |

